dist/img/svg/ic-opportunity.svg

<svg width="32" height="32" viewBox="0 0 32 32" fill="none" xmlns="http://www.w3.org/2000/svg">
<path fill-rule="evenodd" clip-rule="evenodd" d="M21.7717 3.38901C21.6217 3.48639 21.4466 3.53818 21.2677 3.53809H21.2672C21.1132 3.5378 20.9617 3.49908 20.8264 3.42545C20.6911 3.35182 20.5764 3.24559 20.4926 3.11642C20.4087 2.98724 20.3585 2.8392 20.3464 2.68571C20.3343 2.53222 20.3608 2.37814 20.4233 2.23744L21.1757 0.548427C21.2754 0.32445 21.4601 0.14926 21.6891 0.0613987C21.9181 -0.0264628 22.1726 -0.0197992 22.3967 0.0799235C22.6208 0.179646 22.7961 0.364259 22.884 0.59315C22.9719 0.82204 22.9652 1.07646 22.8654 1.30044L22.1131 2.98945C22.0404 3.15284 21.9218 3.29163 21.7717 3.38901ZM10.7356 3.53809C10.8897 3.5378 11.0412 3.49908 11.1765 3.42545C11.3117 3.35182 11.4265 3.24559 11.5103 3.11642C11.5941 2.98724 11.6443 2.8392 11.6564 2.68571C11.6685 2.53222 11.6421 2.37814 11.5795 2.23744L10.8272 0.548427C10.7274 0.32445 10.5427 0.14926 10.3137 0.0613987C10.0847 -0.0264628 9.83021 -0.0197992 9.60613 0.0799235C9.38206 0.179646 9.20679 0.364259 9.11889 0.59315C9.03099 0.82204 9.03766 1.07646 9.13743 1.30044L9.88976 2.98945C9.96252 3.15291 10.0812 3.29175 10.2313 3.38914C10.3815 3.48652 10.5566 3.53827 10.7356 3.53809ZM24.0283 18.4055C23.3492 19.6185 22.4146 20.6696 21.2891 21.486C21.2256 21.5333 21.1744 21.5951 21.1395 21.6662C21.1047 21.7373 21.0874 21.8156 21.0889 21.8948V23.1284C21.5483 23.3932 21.9221 23.7841 22.166 24.2547C22.4099 24.7254 22.5136 25.2561 22.465 25.7839C22.4163 26.3118 22.2172 26.8146 21.8914 27.2328C21.5655 27.6509 21.1265 27.967 20.6265 28.1433V29.2268C20.6256 29.962 20.333 30.6669 19.8129 31.1868C19.2928 31.7067 18.5876 31.9991 17.852 32H14.1527C13.4172 31.9992 12.7119 31.7067 12.1918 31.1868C11.6717 30.6669 11.3791 29.962 11.3783 29.2268V28.1439C10.8782 27.9675 10.4392 27.6515 10.1134 27.2333C9.7875 26.8152 9.58844 26.3123 9.53977 25.7845C9.4911 25.2567 9.59487 24.726 9.83877 24.2553C10.0827 23.7847 10.4565 23.3938 10.9159 23.129V21.8949C10.9176 21.8162 10.9006 21.7382 10.8663 21.6674C10.8319 21.5966 10.7813 21.5349 10.7184 21.4875C9.49069 20.6034 8.49091 19.4401 7.80163 18.0936C7.11235 16.7472 6.75332 15.2561 6.7542 13.7437C6.74448 8.59063 10.834 4.34019 15.8705 4.26843C17.0834 4.2496 18.2879 4.474 19.4126 4.92835C20.5373 5.38271 21.5595 6.0578 22.4188 6.91375C23.405 7.8937 24.1665 9.07611 24.6505 10.3792C25.1345 11.6823 25.3296 13.0749 25.2222 14.4607C25.1147 15.8466 24.7074 17.1926 24.0283 18.4055ZM15.8974 6.11725C11.8681 6.17468 8.59643 9.59443 8.60429 13.7403C8.60252 14.959 8.89073 16.1606 9.44514 17.246C9.99954 18.3314 10.8042 19.2694 11.7928 19.9826C12.0954 20.2011 12.3415 20.4886 12.5107 20.8211C12.68 21.1537 12.7675 21.5218 12.766 21.8949V22.7559H19.2397V21.8952C19.2384 21.5218 19.3262 21.1534 19.4957 20.8206C19.6652 20.4878 19.9117 20.2001 20.2146 19.9815C21.1204 19.3218 21.8724 18.4736 22.4186 17.4954C22.9648 16.5171 23.2923 15.4321 23.3784 14.3151C23.4646 13.1981 23.3073 12.0758 22.9175 11.0254C22.5277 9.97504 21.9147 9.02168 21.1207 8.23104C19.762 6.87684 17.9216 6.1164 16.0029 6.11644C15.9853 6.11644 15.9675 6.11665 15.9498 6.11685H15.9498H15.9497L15.9496 6.11685C15.9321 6.11705 15.9146 6.11725 15.8974 6.11725ZM14.1532 30.1512H17.8525C18.0977 30.1509 18.3327 30.0534 18.5061 29.8801C18.6795 29.7068 18.777 29.4718 18.7773 29.2268V28.3023H13.2284V29.2268C13.2287 29.4718 13.3262 29.7068 13.4996 29.8801C13.6729 30.0534 13.908 30.1509 14.1532 30.1512ZM12.3036 26.4535H19.7021C19.9474 26.4535 20.1826 26.3561 20.356 26.1828C20.5295 26.0094 20.6269 25.7743 20.6269 25.5291C20.6269 25.2839 20.5295 25.0488 20.356 24.8754C20.1826 24.7021 19.9474 24.6047 19.7021 24.6047H12.3036C12.0583 24.6047 11.8231 24.7021 11.6496 24.8754C11.4762 25.0488 11.3787 25.2839 11.3787 25.5291C11.3787 25.7743 11.4762 26.0094 11.6496 26.1828C11.8231 26.3561 12.0583 26.4535 12.3036 26.4535ZM19.0216 11.1972C18.6044 10.7244 18.0856 10.3522 17.5041 10.1083L17.5037 10.1082C17.2767 10.0153 17.0959 9.83615 17.001 9.61006C16.9062 9.38396 16.905 9.12946 16.9979 8.90254C17.0908 8.67562 17.27 8.49487 17.4962 8.40005C17.7224 8.30524 17.977 8.30412 18.204 8.39695C19.0453 8.74814 19.7962 9.28503 20.4005 9.9674C21.0047 10.6498 21.4467 11.4599 21.6934 12.3373C21.7557 12.5719 21.7232 12.8217 21.6028 13.0326C21.4824 13.2434 21.2839 13.3985 21.0501 13.4643C20.8162 13.5301 20.5659 13.5012 20.3532 13.3841C20.1404 13.2669 19.9824 13.0708 19.9131 12.8381C19.7436 12.2309 19.4388 11.6699 19.0216 11.1972ZM4.5133 10.0175C4.62467 10.2359 4.64467 10.4896 4.5689 10.7228V10.723C4.53151 10.8385 4.47168 10.9456 4.39285 11.038C4.31401 11.1304 4.21771 11.2063 4.10947 11.2614C4.00123 11.3166 3.88316 11.3498 3.76204 11.3593C3.64093 11.3688 3.51913 11.3543 3.40363 11.3166L1.64451 10.7452C1.52832 10.7083 1.42058 10.6487 1.3275 10.57C1.23441 10.4913 1.15782 10.3949 1.10213 10.2865C1.04643 10.1781 1.01273 10.0598 1.00297 9.93828C0.993207 9.8168 1.00757 9.69458 1.04524 9.57867C1.08291 9.46276 1.14314 9.35544 1.22246 9.26288C1.30178 9.17032 1.39863 9.09436 1.50743 9.03935C1.61623 8.98435 1.73484 8.95139 1.85643 8.94238C1.97803 8.93337 2.1002 8.94848 2.21593 8.98684L3.97505 9.55801C4.20832 9.63376 4.40194 9.79903 4.5133 10.0175ZM28.3162 11.3617C28.4133 11.3616 28.5098 11.3463 28.6022 11.3162L30.3613 10.745C30.4768 10.7075 30.5838 10.6476 30.6762 10.5688C30.7685 10.4899 30.8444 10.3937 30.8996 10.2855C30.9547 10.1773 30.988 10.0594 30.9975 9.93836C31.007 9.81734 30.9926 9.69563 30.9551 9.58018C30.9176 9.46472 30.8577 9.35778 30.7788 9.26547C30.6999 9.17316 30.6036 9.09728 30.4954 9.04217C30.3872 8.98705 30.2692 8.95378 30.1481 8.94426C30.027 8.93473 29.9053 8.94913 29.7898 8.98664L28.0308 9.55782C27.8212 9.62566 27.6427 9.76607 27.5274 9.95378C27.4122 10.1415 27.3678 10.3642 27.4022 10.5817C27.4366 10.7992 27.5476 10.9973 27.7152 11.1403C27.8827 11.2833 28.0959 11.3618 28.3162 11.3617Z" fill="#E78238"/>
</svg>

<svg width="32" height="32" viewBox="0 0 32 32" fill="none" xmlns="http://www.w3.org/2000/svg"><path fill-rule="evenodd" clip-rule="evenodd" d="M21.772 3.389a.926.926 0 01-1.348-1.152l.752-1.689a.924.924 0 011.69.752l-.753 1.69a.924.924 0 01-.341.399zm-11.036.15a.926.926 0 00.843-1.302L10.827.548a.925.925 0 00-1.69.752l.753 1.69a.925.925 0 00.846.548zm13.292 14.866a9.598 9.598 0 01-2.739 3.081.498.498 0 00-.2.409v1.233a2.773 2.773 0 01-.462 5.015v1.084A2.776 2.776 0 0117.852 32h-3.7a2.778 2.778 0 01-2.774-2.773v-1.083a2.772 2.772 0 01-.462-5.015v-1.234a.497.497 0 00-.198-.407 9.539 9.539 0 01-3.964-7.744c-.01-5.153 4.08-9.404 9.116-9.476a9.08 9.08 0 016.549 2.646 9.595 9.595 0 011.61 11.492zm-8.13-12.288c-4.03.058-7.302 3.477-7.294 7.623a7.682 7.682 0 003.189 6.243 2.347 2.347 0 01.973 1.912v.86h6.474v-.86a2.35 2.35 0 01.975-1.913 7.75 7.75 0 002.703-8.957 7.747 7.747 0 00-1.797-2.794 7.25 7.25 0 00-5.118-2.115h-.053l-.053.001zm-1.745 24.034h3.7a.926.926 0 00.924-.924v-.925h-5.549v.925a.925.925 0 00.925.924zm-1.85-3.698h7.4a.925.925 0 100-1.848h-7.4a.925.925 0 000 1.848zm6.719-15.256a4.18 4.18 0 00-1.518-1.089.925.925 0 11.7-1.711 6.044 6.044 0 013.49 3.94.924.924 0 01-1.78.501 4.177 4.177 0 00-.892-1.64zm-14.509-1.18a.924.924 0 01-1.11 1.3l-1.758-.572a.925.925 0 11.57-1.758l1.76.571a.925.925 0 01.538.46zm23.803 1.345a.926.926 0 00.286-.046l1.76-.571a.926.926 0 00.417-1.48.925.925 0 00-.99-.278l-1.758.57a.925.925 0 00.285 1.805z" fill="#E78238"/></svg>
